X:1
T:LE PIOCHAT
C:Michel PLATRE
Z:Creative Commons BY-NC-SA
L:1/8
M:2/4
K:C
V:1 treble 
V:1
 c2 Bc | A3 A | B>c de | d4 | c2 Bc | A3 A |1 B>c dc || B4 :|2 B>d cB || A4 |: e>dce | d>cBd | %12
 c>ABc | d4 | e>dce | d>cBd | c>ABG | A4 :| %18

